slack.svg

<?xml version="1.0" encoding="UTF-8"?>
<svg viewBox="0 0 24 24" version="1.1" xmlns="http://www.w3.org/2000/svg" xmlns:xlink="http://www.w3.org/1999/xlink">
    <title>Slack</title>
    <path d="M8.79981341,0 C7.47433736,0 6.39997332,1.07465081 6.39997332,2.3999198 C6.39933486,3.03578011 6.65181501,3.64585081 7.10187217,4.09592315 C7.55192933,4.54599549 8.16269711,4.79920183 8.79981341,4.7998396 L11.2000549,4.7998396 L11.2000549,2.3999198 C11.2011641,1.07574425 10.1266043,0.00132814127 8.79981341,0 M8.79981341,6.39978614 L2.39984129,6.39978614 C1.07436524,6.39978614 2.42048025e-06,7.47443694 2.42048025e-06,8.80010693 C2.42048025e-06,10.1253759 1.07436524,11.2000267 2.39984129,11.2000267 L8.80021519,11.2000267 C10.1252895,11.2000267 11.2000541,10.1253759 11.2000541,8.80010693 C11.2000541,7.47443694 10.1252895,6.39978614 8.79981341,6.39978614" fill="#44BEDF"></path>
    <path d="M23.9999991,8.80010693 C23.9999991,7.47443694 22.9252337,6.39978614 21.5997576,6.39978614 C20.2742816,6.39978614 19.1999188,7.47443694 19.1999188,8.80010693 L19.1999188,11.2000267 L21.5997576,11.2000267 C22.9265486,11.1986986 24.0011083,10.1242825 23.9999991,8.80010693 M17.600027,8.80010693 L17.600027,2.3999198 C17.6011362,1.07574425 16.5265764,0.00132814127 15.1997855,0 C13.8743095,0 12.7999466,1.07465081 12.7999466,2.3999198 L12.7999466,8.79970594 C12.7999466,10.1257769 13.8743095,11.2004277 15.1997855,11.2004277 C16.5265764,11.1990996 17.6011362,10.1246835 17.600027,8.80050792" fill="#2EB67D"></path>
    <path d="M15.1997855,24 C16.5265764,23.9986719 17.6011362,22.9242557 17.600027,21.6000802 C17.6011362,20.2759046 16.5265764,19.2014885 15.1997855,19.2001604 L12.7999466,19.2001604 L12.7999466,21.6000802 C12.7999466,22.9253492 13.8743095,24 15.1997855,24 M15.1997855,17.6002139 L21.6001594,17.6002139 C22.9252337,17.6002139 23.9999991,16.5255631 23.9999991,15.1998931 C24.0011083,13.8757175 22.9265486,12.8013014 21.5997576,12.7999733 L15.1997855,12.7999733 C13.8743095,12.7999733 12.7999454,13.8746241 12.7999454,15.1998931 C12.799307,15.8357534 13.0517871,16.4458241 13.5018443,16.8958964 C13.9519014,17.3459688 14.5626692,17.5991751 15.1997855,17.5998129" fill="#ECB22E"></path>
    <path d="M1.20794668e-06,15.1998931 C-0.000637254353,15.8357534 0.251842898,16.4458241 0.701900059,16.8958964 C1.15195722,17.3459688 1.762725,17.5991751 2.39984129,17.5998129 C3.72663222,17.5984847 4.80119197,16.5240686 4.80008281,15.1998931 L4.80008281,12.7999733 L2.39984129,12.7999733 C1.07436524,12.7999733 1.20794668e-06,13.8746241 1.20794668e-06,15.1998931 M6.39997453,15.1998931 L6.39997453,21.5996792 C6.39997453,22.9253492 7.47433736,24 8.79981341,24 C10.1266043,23.9986719 11.2011641,22.9242557 11.2000553,21.6000802 L11.2000553,15.1998931 C11.2006937,14.5639633 10.9481584,13.9538319 10.4980144,13.5037481 C10.0478703,13.0536642 9.43699935,12.8005047 8.79981341,12.7999733 C7.47433736,12.7999733 6.39997453,13.8746241 6.39997453,15.1998931" fill="#E01E5A"></path>
</svg>

<svg viewBox="0 0 24 24" xmlns="http://www.w3.org/2000/svg"><path d="M8.8 0a2.4 2.4 0 0 0 0 4.8h2.4V2.4A2.4 2.4 0 0 0 8.8 0m0 6.4H2.4a2.4 2.4 0 0 0 0 4.8h6.4a2.4 2.4 0 0 0 0-4.8" fill="#44BEDF"/><path d="M24 8.8a2.4 2.4 0 0 0-4.8 0v2.4h2.4A2.4 2.4 0 0 0 24 8.8m-6.4 0V2.4a2.4 2.4 0 0 0-4.8 0v6.4a2.4 2.4 0 1 0 4.8 0" fill="#2EB67D"/><path d="M15.2 24a2.4 2.4 0 0 0 0-4.8h-2.4v2.4a2.4 2.4 0 0 0 2.4 2.4m0-6.4h6.4a2.4 2.4 0 0 0 0-4.8h-6.4a2.4 2.4 0 0 0 0 4.8" fill="#ECB22E"/><path d="M0 15.2c0 .636.252 1.246.702 1.696A2.4 2.4 0 0 0 4.8 15.2v-2.4H2.4A2.4 2.4 0 0 0 0 15.2m6.4 0v6.4a2.4 2.4 0 1 0 4.8 0v-6.4c0-.636-.252-1.246-.702-1.696A2.4 2.4 0 0 0 6.4 15.2" fill="#E01E5A"/></svg>
